static/logos/sendgrid-glyph-color.svg

<svg width="50" height="50" viewBox="0 0 50 50" fill="none" xmlns="http://www.w3.org/2000/svg">
<g clip-path="url(#clip0_1_1133)">
<path fill-rule="evenodd" clip-rule="evenodd" d="M16.4062 49.7069H32.727V33.3862H16.4062V49.7069Z" fill="#9DD6E3"/>
<path fill-rule="evenodd" clip-rule="evenodd" d="M0.078125 33.3871H16.3989V17.0659H0.078125V33.3871Z" fill="#9DD6E3"/>
<path fill-rule="evenodd" clip-rule="evenodd" d="M0.0859375 49.7069H16.4067V33.3862H0.0859375V49.7069Z" fill="#3F72AB"/>
<path fill-rule="evenodd" clip-rule="evenodd" d="M32.7266 33.3871H49.0473V17.0659H32.7266V33.3871Z" fill="#00A9D1"/>
<path fill-rule="evenodd" clip-rule="evenodd" d="M16.4062 17.0664H32.727V0.745575H16.4062V17.0664Z" fill="#00A9D1"/>
<path fill-rule="evenodd" clip-rule="evenodd" d="M16.4062 33.3867H32.727V17.0659H16.4062V33.3867Z" fill="#2191C4"/>
<path fill-rule="evenodd" clip-rule="evenodd" d="M32.7266 17.0664H49.0473V0.745575H32.7266V17.0664Z" fill="#3F72AB"/>
</g>
<defs>
<clipPath id="clip0_1_1133">
<rect width="50" height="50" fill="white"/>
</clipPath>
</defs>
</svg>

<svg xmlns="http://www.w3.org/2000/svg" width="64" height="64" fill="none" viewBox="0 0 50 50"><g fill-rule="evenodd" clip-path="url(#a)" clip-rule="evenodd"><path fill="#9DD6E3" d="M16.406 49.707h16.321v-16.32h-16.32v16.32ZM.078 33.387h16.32V17.066H.079v16.321Z"/><path fill="#3F72AB" d="M.086 49.707h16.32v-16.32H.087v16.32Z"/><path fill="#00A9D1" d="M32.727 33.387h16.32V17.066h-16.32v16.321ZM16.406 17.066h16.321V.746h-16.32v16.32Z"/><path fill="#2191C4" d="M16.406 33.387h16.321V17.066h-16.32v16.32Z"/><path fill="#3F72AB" d="M32.727 17.066h16.32V.746h-16.32v16.32Z"/></g><defs><clipPath id="a"><path fill="#fff" d="M0 0h50v50H0z"/></clipPath></defs></svg>
